symbols/web/contact_mail/materialsymbolsrounded/contact_mail_wght500grad200_40px.svg

<svg xmlns="http://www.w3.org/2000/svg" height="40" width="40"><path d="M2.958 36q-1.5 0-2.604-1.104T-.75 32.25V7.708q0-1.541 1.104-2.645 1.104-1.105 2.604-1.105H37q1.5 0 2.625 1.105 1.125 1.104 1.125 2.645V32.25q0 1.542-1.125 2.646Q38.5 36 37 36Zm23.75-3.583h10.417V7.542H2.833v24.875h.334q1.791-3.375 4.916-5.188 3.125-1.812 6.875-1.812 3.667 0 6.792 1.812 3.125 1.813 4.958 5.188Zm-11.791-10q2.25 0 3.791-1.521 1.542-1.521 1.542-3.813 0-2.25-1.542-3.791-1.541-1.542-3.791-1.542-2.292 0-3.813 1.542-1.521 1.541-1.521 3.791t1.521 3.792q1.521 1.542 3.813 1.542Zm10.375-4.375h7.583q.792 0 1.313-.521.52-.521.52-1.313v-4.375q0-.791-.52-1.312Q33.667 10 32.875 10h-7.583q-.792 0-1.313.521-.521.521-.521 1.312v4.375q0 .792.521 1.313.521.521 1.313.521ZM7.583 32.417h14.625q-1.5-1.709-3.354-2.563Q17 29 14.917 29q-2.084 0-3.979.812-1.896.813-3.355 2.605Zm7.334-13.459q-.75 0-1.313-.541-.562-.542-.562-1.334 0-.75.541-1.312.542-.563 1.334-.563.75 0 1.291.542.542.542.542 1.333 0 .792-.521 1.334-.521.541-1.312.541Zm5.083 1Zm9.125-3.708-4.333-3.167v-1.75l4.291 3.167 4.292-3.167v1.75Z"/></svg>

<svg xmlns="http://www.w3.org/2000/svg" height="40" width="40"><path d="M2.958 36Q1.458 36 0.354 34.896Q-0.75 33.792 -0.75 32.25V7.708Q-0.75 6.167 0.354 5.063Q1.458 3.958 2.958 3.958H37Q38.5 3.958 39.625 5.063Q40.75 6.167 40.75 7.708V32.25Q40.75 33.792 39.625 34.896Q38.5 36 37 36ZM26.708 32.417H37.125Q37.125 32.417 37.125 32.417Q37.125 32.417 37.125 32.417V7.542Q37.125 7.542 37.125 7.542Q37.125 7.542 37.125 7.542H2.833Q2.833 7.542 2.833 7.542Q2.833 7.542 2.833 7.542V32.417Q2.833 32.417 2.833 32.417Q2.833 32.417 2.833 32.417H3.167Q4.958 29.042 8.083 27.229Q11.208 25.417 14.958 25.417Q18.625 25.417 21.75 27.229Q24.875 29.042 26.708 32.417ZM14.917 22.417Q17.167 22.417 18.708 20.896Q20.25 19.375 20.25 17.083Q20.25 14.833 18.708 13.292Q17.167 11.75 14.917 11.75Q12.625 11.75 11.104 13.292Q9.583 14.833 9.583 17.083Q9.583 19.333 11.104 20.875Q12.625 22.417 14.917 22.417ZM25.292 18.042H32.875Q33.667 18.042 34.188 17.521Q34.708 17 34.708 16.208V11.833Q34.708 11.042 34.188 10.521Q33.667 10 32.875 10H25.292Q24.5 10 23.979 10.521Q23.458 11.042 23.458 11.833V16.208Q23.458 17 23.979 17.521Q24.5 18.042 25.292 18.042ZM29.125 16.25 24.792 13.083V11.333L29.125 14.417L33.375 11.333V13.083ZM7.583 32.417H22.208Q20.708 30.708 18.854 29.854Q17 29 14.917 29Q12.833 29 10.938 29.812Q9.042 30.625 7.583 32.417ZM14.917 18.958Q14.167 18.958 13.604 18.417Q13.042 17.875 13.042 17.083Q13.042 16.333 13.583 15.771Q14.125 15.208 14.917 15.208Q15.667 15.208 16.208 15.75Q16.75 16.292 16.75 17.083Q16.75 17.875 16.229 18.417Q15.708 18.958 14.917 18.958ZM20 19.958Q20 19.958 20 19.958Q20 19.958 20 19.958Q20 19.958 20 19.958Q20 19.958 20 19.958Q20 19.958 20 19.958Q20 19.958 20 19.958Q20 19.958 20 19.958Q20 19.958 20 19.958Q20 19.958 20 19.958Q20 19.958 20 19.958Q20 19.958 20 19.958Q20 19.958 20 19.958Z"/></svg>
